dist/img/clients-logo/04.svg

<svg width="70" height="70" viewBox="0 0 70 70" fill="none" xmlns="http://www.w3.org/2000/svg">
<path d="M62.0889 45.4881C57.2897 56.3085 48.0932 63.8305 36.0125 63.9966C27.2415 64.1153 19.4871 61.1017 13.8841 55.8339L10.5034 57.2814V52.0136C6.81537 47.0305 4.66401 40.6949 4.66401 33.5288C4.66401 15.139 18.6833 0.664406 38.2584 0.664406C41.45 0.664406 44.3342 1.16271 46.5092 1.66102C43.1522 0.59322 39.8187 0 36.107 0C15.1135 0 0.975952 17.0847 0.975952 34.7153C0.975952 53.9119 15.9882 70 35.6815 70C54.5 70 64.6422 56.6881 67.9047 48.6678L62.0889 45.4881Z" fill="white"/>
<path d="M57.2194 41.6915C59.9855 41.383 61.9004 40.2678 62.9406 39.2237C63.8863 38.2746 64.1227 36.9932 64.1227 36.0203C64.17 34.5966 64.1227 30.1356 64.1227 30.1356L56.8175 31.7254C56.8175 31.7254 56.8175 32.2712 56.8175 33.4339C56.8412 34.5729 57.3849 35.1898 58.567 34.9763C58.9453 34.9051 59.5126 34.739 59.5126 34.739V36.139C59.5126 36.0915 59.6309 36.922 57.7868 37.278C55.3754 37.6576 54.2879 36.1627 54.2643 33.5288C54.3116 30.7051 55.8955 29.0915 57.8341 28.6407C60.0091 28.1424 61.2385 28.6644 61.9477 28.7593C64.3591 29.1153 65.0447 25.4847 62.8461 24.6305C61.2148 23.9661 59.1107 23.8475 57.1012 24.2509C54.4061 24.7966 49.1341 27.0508 49.1105 34.3831C49.0868 40.2203 53.3659 42.1186 57.2194 41.6915Z" fill="white"/>
<path d="M33.4599 47.9322C33.4599 47.9322 35.7058 47.1491 35.8949 47.1017C37.6917 46.4847 38.3536 45.3932 38.3536 43.5424C38.33 41.5254 38.33 37.5864 38.33 37.5864L43.5547 43.6135C44.4058 44.4915 45.4697 44.5627 46.439 44.2779C47.4319 43.9932 48.283 43.0678 48.3066 41.7627C48.3066 37.4203 48.3066 26.7898 48.3066 26.7898C48.3066 26.7898 46.9591 27.0746 45.8479 27.383C44.5713 27.739 43.5784 28.5695 43.5784 30.7525C43.5784 31.5118 43.5784 35.9491 43.5784 35.9491C43.5784 35.9491 40.5996 32.2237 38.6846 30.3017C37.668 29.2813 35.9659 29.8983 35.9659 29.8983L33.4599 30.6576V47.9322Z" fill="white"/>
<path d="M31.8759 31.0372C31.8759 31.0372 30.3156 31.4881 29.039 31.9627C27.3841 32.5559 26.4148 33.5288 26.4148 36.044C26.4148 38.3695 26.4148 50.4 26.4148 50.4C26.4148 50.4 27.8569 49.9017 29.2281 49.3796C31.1431 48.644 31.8759 47.6474 31.8759 45.6305C31.8759 43.8983 31.8759 31.0372 31.8759 31.0372Z" fill="white"/>
<path d="M24.098 34.4542C22.6558 33.7898 21.4265 34.5254 20.9064 35.3322L16.4854 42.9017V36.8033L11.2371 38.9627L11.2134 56.1898L14.9015 54.6474C14.9015 54.6474 15.6344 54.4339 16.0599 53.7457C16.4618 53.105 16.4382 52.061 16.4382 52.061V46.6034L20.5518 50.9932C21.4501 51.9423 23.105 52.4169 24.5708 51.2305C25.8947 50.1627 25.6819 48.3356 24.9491 47.505L21.2137 43.7322C21.2137 43.7322 24.4999 38.5118 25.0436 37.6576C25.7529 36.4711 25.3982 35.0474 24.098 34.4542Z" fill="white"/>
<path d="M13.743 32.1288C13.7193 31.1796 12.9865 30.6576 11.7335 31.2983V34.3593C11.7335 34.3593 12.1354 34.1695 12.4427 34.0271C13.1992 33.6712 13.7666 33.0542 13.743 32.1288ZM11.7098 29.3525C11.9462 29.2576 12.1117 29.1864 12.3009 29.0915C12.9865 28.7593 13.4829 28.1186 13.4829 27.3119C13.4829 26.3864 12.7264 26.1491 11.7098 26.6712C11.7098 26.6949 11.7098 29.3525 11.7098 29.3525ZM17.1001 31.678C17.1473 34.0983 15.4215 35.3797 13.152 36.3051L8.54188 38.2746V25.722C8.54188 25.722 11.4498 24.5356 12.3954 24.1796C15.0905 23.183 16.6745 24.3932 16.6745 26.1966C16.6745 27.4068 16.1544 28.4271 15.0433 29.3288C16.1308 29.5186 17.0764 30.4203 17.1001 31.678Z" fill="white"/>
<path d="M25.8474 21.0949C25.8474 20.0271 25.1145 19.7661 24.2398 20.0034C23.5306 20.2169 22.7031 20.5254 22.7031 20.5254V28.3322C22.7031 29.1152 22.5849 30.0881 21.6156 30.3254C20.8827 30.5152 20.5281 30.0169 20.5281 29.2339V22.8508C20.5281 21.783 19.7952 21.4745 18.9205 21.7593C17.9276 22.0915 17.3602 22.3288 17.3602 22.3288C17.3602 22.3288 17.3602 27.8576 17.3602 30.0644C17.3365 32.6508 19.1333 33.9559 21.8284 33.1491C24.2162 32.4373 25.8238 31.0847 25.8474 27.644V21.0949Z" fill="white"/>
<path d="M51.5219 24.3221C52.2075 24.1797 52.6331 23.6814 52.6331 22.8271C52.6331 22.0678 52.6331 21.4746 52.6331 21.4746L48.8977 22.3051V20.0983C48.8977 20.0983 50.7418 19.7187 51.2382 19.6C51.8766 19.4576 52.2075 19.1017 52.2075 18.3661C52.2075 17.678 52.2075 17.0848 52.2075 17.0848L48.8977 17.7966V16.0407C48.8977 16.0407 50.6236 15.6848 51.5456 15.4949C52.2785 15.3526 52.5149 14.8543 52.5149 14.1661C52.5149 13.7153 52.5149 12.8373 52.5149 12.8373C50.86 13.1221 47.7157 13.7627 45.7534 14.2136L45.7298 25.6509C45.7298 25.6509 49.4651 24.7729 51.5219 24.3221Z" fill="white"/>
<path d="M29.8664 23.8475C29.8664 23.8475 31.7104 22.8746 31.7104 21.3559C31.6868 20.0508 30.5047 20.3356 29.89 20.5729L29.8664 23.8475ZM29.89 25.6271C29.89 25.6271 29.89 27.8102 29.89 28.7119C29.89 29.5424 29.3226 30.1356 28.6134 30.4203C28.6134 30.3966 28.6134 30.4441 28.6134 30.4203C28.0224 30.6339 26.7457 31.061 26.7457 31.061V19.2678C26.7457 19.2678 29.3699 18.3424 30.9066 17.9864C33.2708 17.417 34.9729 18.5085 34.9493 20.4542C34.9257 22.3051 33.9091 23.4203 32.9871 24.2034L35.0202 26.1492C35.6349 26.7661 35.6822 27.8576 34.9966 28.522C34.571 28.9254 33.4599 29.3288 32.6088 28.4271C32.5852 28.4271 29.89 25.6271 29.89 25.6271Z" fill="white"/>
<path d="M56.392 17.5119C56.392 17.5119 58.2124 16.8238 58.1887 15.3526C58.1651 14.1187 56.9594 14.3322 56.3683 14.4746L56.392 17.5119ZM53.3186 23.9661V12.6712C53.3186 12.6712 56.6048 12.078 57.4558 11.9831C59.82 11.6746 61.404 13.0034 61.3567 14.8543C61.333 16.4916 60.3165 17.4882 59.4417 18.0814C59.4417 18.0814 61.0493 19.8848 61.4749 20.3831C62.0423 21.0238 62.0186 22.139 61.1675 22.6848C60.3401 23.2068 59.489 22.9458 59.0162 22.4L56.392 19.2678C56.392 19.2678 56.392 21.1899 56.392 22.0204C56.392 22.8509 55.8955 23.4678 55.0444 23.6339L53.3186 23.9661Z" fill="white"/>
<path d="M44.9969 19.2203L40.3395 20.2881C40.3395 20.2881 40.3395 20.7864 40.3395 21.5932C40.3395 22.2101 40.7651 22.5898 41.3797 22.4712C41.758 22.4 42.0653 22.3288 42.0653 22.3288V23.6339C42.0653 24.1559 41.3088 24.4881 40.505 24.4644C39.3702 24.4169 38.7555 23.539 38.7319 21.8779C38.7555 19.6949 39.7958 18.4135 41.1906 18.0576C41.8762 17.8678 42.5145 17.9627 43.011 18.0339C44.2167 18.2237 44.9023 17.6542 44.9259 16.6576C44.9496 15.5898 44.0039 14.9254 41.9944 14.9966C37.5971 15.139 35.3512 18.3186 35.3512 22.0915C35.3512 25.9593 37.8808 27.6678 40.9542 27.122C42.68 26.7661 43.5547 26.1966 44.1458 25.6745C44.7368 25.1525 44.9969 24.3695 44.9969 23.6813V19.2203Z" fill="white"/>
<path fill-rule="evenodd" clip-rule="evenodd" d="M52.9403 9.84745C53.1058 9.44406 52.7749 9.0644 52.7749 9.0644C52.7749 9.0644 50.1743 4.65084 41.0251 3.65423C36.1077 3.13219 29.4408 4.12881 24.7598 6.66779C16.2489 11.2474 14.9723 18.8169 14.9723 18.8169C14.925 19.0068 14.8541 19.5763 15.0432 19.8136C15.2324 20.0508 15.5161 20.0508 15.8707 19.9322C18.8731 18.9119 27.7859 15.9458 33.4126 14.4508C41.427 12.3152 48.0229 11.0102 52.2311 10.2983C52.5621 10.2271 52.8221 10.1322 52.9403 9.84745ZM26.6275 6.5729C21.4737 8.85086 17.9984 14.2848 17.8093 16.5627C17.7384 17.4644 18.9441 17.6068 19.0623 16.6339C20.1498 12.4576 23.4596 8.51866 26.6275 6.5729ZM44.9811 10.155C44.5818 10.2467 44.1453 10.3469 43.673 10.4644C44.7368 10.1322 45.5643 9.30169 45.5406 8.35254C45.5406 6.88136 42.2308 4.74576 36.6988 4.3661C42.1363 3.91525 48.0466 6.33559 47.9993 8.42373C47.9797 9.46659 46.9197 9.70994 44.9811 10.155Z" fill="white"/>
<path fill-rule="evenodd" clip-rule="evenodd" d="M22.3011 55.6202C22.3011 55.6202 21.8519 55.1694 22.041 54.7185C22.1829 54.4338 22.3484 54.3626 22.7503 54.1965C32.0886 50.1863 48.2357 45.227 57.9759 42.9253C58.4015 42.8304 58.7324 42.8304 58.9452 43.0677C59.2053 43.3524 59.158 43.8033 59.0871 44.088C58.7561 45.488 55.8009 55.4304 41.8052 58.8236C32.6324 61.0541 24.1924 58.0168 22.3011 55.6202ZM55.7538 47.0067C53.5315 51.7051 49.5361 54.861 45.3752 56.4983C50.0798 53.8169 52.7277 49.9017 54.0279 46.5559C54.5481 44.9423 56.3921 45.6542 55.7538 47.0067Z" fill="white"/>
<path d="M66.345 42.3797H66.9124C67.2198 42.3797 67.6217 42.4272 67.6217 42.8068C67.6217 43.2339 67.338 43.2814 66.9597 43.2814H66.3687L66.345 42.3797ZM65.6594 45.2509H66.3214V43.8034H66.7469L67.5744 45.2509H68.2836L67.3853 43.756C67.8817 43.7085 68.2836 43.4712 68.2836 42.8543C68.2836 42.1187 67.8108 41.8339 66.9597 41.8339H65.6594V45.2509ZM63.7681 43.5424C63.7681 45.3933 65.2339 46.6034 66.8888 46.6034C68.5437 46.6034 70.0095 45.417 70.0095 43.5424C70.0095 41.6916 68.5437 40.5051 66.8888 40.5051C65.2339 40.5051 63.7681 41.6916 63.7681 43.5424ZM64.5956 43.5424C64.5956 42.1661 65.6122 41.1458 66.8888 41.1458C68.1418 41.1458 69.182 42.1424 69.182 43.5424C69.182 44.9424 68.1418 45.939 66.8888 45.939C65.6122 45.9627 64.5956 44.9424 64.5956 43.5424Z" fill="white"/>
</svg>

<svg width="70" height="70" viewBox="0 0 70 70" fill="none" xmlns="http://www.w3.org/2000/svg"><path d="M62.089 45.488c-4.8 10.82-13.996 18.343-26.076 18.509-8.771.118-16.526-2.895-22.129-8.163l-3.38 1.447v-5.267c-3.689-4.983-5.84-11.32-5.84-18.485 0-18.39 14.02-32.865 33.594-32.865 3.192 0 6.076.499 8.251.997C43.152.593 39.82 0 36.107 0 15.114 0 .976 17.085.976 34.715.976 53.912 15.988 70 35.682 70c18.818 0 28.96-13.312 32.223-21.332l-5.816-3.18z" fill="#fff"/><path d="M57.22 41.691c2.766-.308 4.68-1.423 5.72-2.467.946-.95 1.183-2.23 1.183-3.204.047-1.423 0-5.884 0-5.884l-7.306 1.59v1.708c.024 1.139.568 1.756 1.75 1.542.378-.07.946-.237.946-.237v1.4c0-.047.118.783-1.726 1.139-2.412.38-3.5-1.115-3.523-3.75.048-2.823 1.631-4.436 3.57-4.887 2.175-.499 3.404.023 4.114.118 2.411.356 3.097-3.274.898-4.128-1.631-.665-3.735-.784-5.745-.38-2.695.546-7.967 2.8-7.99 10.132-.024 5.837 4.255 7.736 8.108 7.308zm-23.76 6.241s2.246-.783 2.435-.83c1.797-.617 2.459-1.709 2.459-3.56-.024-2.017-.024-5.956-.024-5.956l5.225 6.028c.85.878 1.915.949 2.884.664.993-.285 1.844-1.21 1.868-2.515V26.79s-1.348.285-2.46.593c-1.276.356-2.269 1.187-2.269 3.37v5.196s-2.978-3.725-4.893-5.647c-1.017-1.02-2.72-.404-2.72-.404l-2.505.76v17.274zm-1.584-16.895s-1.56.451-2.837.926c-1.655.593-2.624 1.566-2.624 4.081V50.4s1.442-.498 2.813-1.02c1.915-.736 2.648-1.733 2.648-3.75V31.037zm-7.778 3.417c-1.442-.664-2.671.071-3.192.878l-4.42 7.57v-6.099l-5.249 2.16-.024 17.227 3.689-1.543s.732-.213 1.158-.901c.402-.641.378-1.685.378-1.685v-5.458l4.114 4.39c.898.95 2.553 1.424 4.019.237 1.324-1.067 1.11-2.894.378-3.725l-3.735-3.773s3.286-5.22 3.83-6.074c.709-1.187.354-2.61-.946-3.204zm-10.355-2.325c-.024-.95-.757-1.471-2.01-.83v3.06s.402-.19.71-.332c.756-.356 1.324-.973 1.3-1.898zm-2.033-2.776c.236-.095.402-.167.59-.262.686-.332 1.183-.972 1.183-1.78 0-.925-.757-1.162-1.773-.64v2.681zm5.39 2.325c.047 2.42-1.679 3.702-3.948 4.627l-4.61 1.97V25.722s2.908-1.186 3.853-1.542c2.696-.997 4.28.213 4.28 2.017 0 1.21-.52 2.23-1.632 3.132 1.088.19 2.033 1.091 2.057 2.349zm8.747-10.583c0-1.068-.733-1.329-1.607-1.092a29.88 29.88 0 00-1.537.522v7.807c0 .783-.118 1.756-1.087 1.993-.733.19-1.088-.308-1.088-1.091V22.85c0-1.068-.733-1.377-1.607-1.092-.993.332-1.56.57-1.56.57v7.735c-.024 2.587 1.772 3.892 4.467 3.085 2.388-.712 3.996-2.064 4.02-5.505v-6.55zm25.675 3.227c.686-.142 1.111-.64 1.111-1.495v-1.352l-3.735.83v-2.207s1.844-.38 2.34-.498c.639-.142.97-.498.97-1.234v-1.281l-3.31.712V16.04l2.648-.546c.733-.142.969-.64.969-1.329v-1.329c-1.655.285-4.8.926-6.762 1.377L45.73 25.65s3.735-.878 5.792-1.329zm-21.656-.474s1.844-.973 1.844-2.492c-.023-1.305-1.205-1.02-1.82-.783l-.024 3.274zm.024 1.78v3.084c0 .83-.567 1.424-1.277 1.708 0-.023 0 .024 0 0-.59.214-1.867.641-1.867.641V19.268s2.624-.926 4.16-1.282c2.365-.569 4.067.523 4.043 2.468-.023 1.851-1.04 2.966-1.962 3.75l2.033 1.945c.615.617.662 1.709-.023 2.373-.426.403-1.537.807-2.388-.095-.024 0-2.719-2.8-2.719-2.8zm26.502-8.116s1.82-.688 1.797-2.16c-.024-1.233-1.23-1.02-1.82-.877l.023 3.037zm-3.073 6.454V12.671s3.286-.593 4.137-.688c2.364-.308 3.948 1.02 3.9 2.871-.023 1.638-1.04 2.634-1.914 3.227 0 0 1.607 1.804 2.033 2.302.567.64.544 1.756-.308 2.302-.827.522-1.678.26-2.15-.285l-2.625-3.132v2.752c0 .83-.497 1.448-1.348 1.614l-1.725.332z" fill="#fff"/><path d="M44.997 19.22l-4.657 1.068v1.305c0 .617.425.997 1.04.878.378-.071.685-.142.685-.142v1.305c0 .522-.756.854-1.56.83-1.135-.047-1.75-.925-1.773-2.586.023-2.183 1.064-3.465 2.459-3.82.685-.19 1.323-.095 1.82-.024 1.206.19 1.891-.38 1.915-1.376.024-1.068-.922-1.733-2.932-1.661-4.397.142-6.643 3.322-6.643 7.095 0 3.867 2.53 5.576 5.603 5.03 1.726-.356 2.6-.925 3.192-1.448.59-.521.85-1.305.85-1.993v-4.46z" fill="#fff"/><path fill-rule="evenodd" clip-rule="evenodd" d="M52.94 9.847c.166-.403-.165-.783-.165-.783s-2.6-4.413-11.75-5.41c-4.917-.522-11.584.475-16.265 3.014-8.511 4.58-9.788 12.149-9.788 12.149-.047.19-.118.76.071.997.19.237.473.237.828.118 3.002-1.02 11.915-3.986 17.542-5.481 8.014-2.136 14.61-3.44 18.818-4.153.331-.07.591-.166.71-.45zM26.628 6.573c-5.154 2.278-8.63 7.712-8.819 9.99-.07.901 1.135 1.044 1.253.07 1.088-4.175 4.398-8.114 7.566-10.06zm18.353 3.582c-.4.092-.836.192-1.308.31 1.064-.333 1.891-1.163 1.868-2.112 0-1.472-3.31-3.607-8.842-3.987 5.437-.45 11.348 1.97 11.3 4.058-.02 1.043-1.08 1.286-3.018 1.731zM22.301 55.62s-.45-.45-.26-.901c.142-.285.307-.356.71-.523 9.338-4.01 25.485-8.969 35.225-11.27.425-.096.756-.096.97.142.26.284.212.735.141 1.02-.33 1.4-3.286 11.342-17.282 14.736-9.173 2.23-17.613-.807-19.504-3.204zm33.453-8.613c-2.222 4.698-6.218 7.854-10.379 9.491 4.705-2.681 7.353-6.596 8.653-9.942.52-1.614 2.364-.902 1.726.45z" fill="#fff"/><path d="M66.345 42.38h.567c.308 0 .71.047.71.427 0 .427-.284.474-.662.474h-.591l-.024-.901zm-.686 2.87h.662v-1.447h.426l.827 1.448h.71l-.899-1.495c.497-.047.899-.285.899-.902 0-.735-.473-1.02-1.324-1.02h-1.3v3.417zm-1.89-1.708c0 1.851 1.465 3.061 3.12 3.061s3.12-1.186 3.12-3.06c0-1.851-1.465-3.038-3.12-3.038s-3.12 1.187-3.12 3.037zm.827 0c0-1.376 1.016-2.396 2.293-2.396 1.253 0 2.293.996 2.293 2.396s-1.04 2.397-2.293 2.397c-1.277.024-2.293-.997-2.293-2.397z" fill="#fff"/></svg>
